!! 00000] TT[WS
!!!OTL: NÅhai zhengshiqi
!!!ARE: Asia, China, Shanxi Linxian
!! Ethnic Group: Han
!! WII, 126 (2)
!!!SCT: J0594
!!!YEM: Copyright 1995, estate of Helmut Schaffrath.
**kern
*ICvox
*Ivox
*M2/4
*k[f#]
*G:
{16ee
16gg
16ee
16dd
8b
8dd
=1
16ee
16gg
16ee
16dd
4ee
=2
16dd
16ee
8gg
16gg
16ee
8dd
=3
16ee
16dd
16b
16dd
4a}
=4
{8dd
8b
16dd
16ee
16dd
16b
=5
8a
8dd
4g
=6
16e
16e
8b
16a
16b
16g
16e
=7
2d}
==
!!!AGN: Xiaodiao. Qingge, Aisu
!!!ONB: ESAC (Essen Associative Code) Database: CHINA
!!!AMT: simple duple
!!!AIN: vox
!!!EED: Helmut Schaffrath
!!!EEV: 1.0
*-
